_/img/linkedin.svg

<svg width="16" height="16" viewBox="0 0 16 16" fill="none" xmlns="http://www.w3.org/2000/svg">
<g clip-path="url(#clip0_3405_2583)">
<path d="M1.91716 3.77525C3.10876 3.77525 3.84949 2.99252 3.84949 2.0189C3.82371 1.02615 3.10231 0.268898 1.93648 0.268898C0.770638 0.268898 0.00415039 1.02615 0.00415039 2.02525C0.00415039 2.99887 0.744888 3.78161 1.89139 3.78161H1.91716V3.77525ZM3.62405 15.3189V5.1625H0.210263V15.3189L3.62405 15.3189Z" fill="#333333"/>
<path d="M5.51126 15.3189H8.92501V9.64892C8.91082 9.37088 8.94794 9.09261 9.03451 8.82801C9.27927 8.22347 9.84609 7.59345 10.7865 7.59345C12.0232 7.59345 12.5191 8.52256 12.5191 9.89072V15.3253H15.9329V9.49625C15.9329 6.37808 14.2453 4.92715 11.9974 4.92715C10.1552 4.92715 9.34364 5.94535 8.89921 6.63898H8.92501V5.16257H5.51126C5.55626 6.1171 5.51126 15.3189 5.51126 15.3189Z" fill="#333333"/>
</g>
<defs>
<clipPath id="clip0_3405_2583">
<rect width="16" height="16" fill="white"/>
</clipPath>
</defs>
</svg>

<svg width="16" height="16" viewBox="0 0 16 16" fill="none" xmlns="http://www.w3.org/2000/svg"><g clip-path="url(#clip0_3405_2583)" fill="#333"><path d="M1.917 3.775c1.192 0 1.932-.782 1.932-1.756-.025-.993-.747-1.75-1.913-1.75C.771.269.004 1.026.004 2.025c0 .974.74 1.757 1.887 1.757h.026v-.007zM3.624 15.32V5.162H.21V15.32h3.414zm1.887-.001h3.414v-5.67a2.268 2.268 0 01.11-.821c.244-.605.811-1.235 1.752-1.235 1.236 0 1.732.93 1.732 2.298v5.434h3.414V9.496c0-3.118-1.688-4.569-3.936-4.569-1.842 0-2.653 1.018-3.098 1.712h.026V5.163H5.511c.045.954 0 10.156 0 10.156z"/></g><defs><clipPath id="clip0_3405_2583"><path fill="#fff" d="M0 0h16v16H0z"/></clipPath></defs></svg>
